Newaita-dark/actions/32/tool-node-editor.svg

<?xml version="1.0" encoding="UTF-8"?>
<svg xmlns="http://www.w3.org/2000/svg" xmlns:xlink="http://www.w3.org/1999/xlink" width="32pt" height="32pt" viewBox="0 0 32 32" version="1.1">
<g id="surface1">
<path style=" stroke:none;fill-rule:evenodd;fill:rgb(74.117649%,74.117649%,74.117649%);fill-opacity:1;" d="M 11.90625 12.15625 L 18.46875 29.917969 L 22.652344 22.902344 L 29.695312 18.691406 Z M 11.90625 12.15625 "/>
<path style=" stroke:none;fill-rule:nonzero;fill:rgb(74.117649%,74.117649%,74.117649%);fill-opacity:1;" d="M 21.714844 23.835938 L 23.585938 21.964844 L 30.617188 28.996094 L 28.746094 30.867188 Z M 21.714844 23.835938 "/>
<path style=" stroke:none;fill-rule:nonzero;fill:rgb(14.901961%,65.098041%,60.392159%);fill-opacity:1;" d="M 3.308594 1.574219 C 2.207031 1.574219 1.324219 2.457031 1.324219 3.558594 L 1.324219 8.851562 C 1.324219 9.949219 2.207031 10.835938 3.308594 10.835938 L 8.601562 10.835938 C 9.699219 10.835938 10.585938 9.949219 10.585938 8.851562 L 10.585938 3.558594 C 10.585938 2.457031 9.699219 1.574219 8.601562 1.574219 Z M 4.628906 3.558594 L 7.277344 3.558594 C 8.007812 3.558594 8.601562 4.148438 8.601562 4.878906 L 8.601562 7.527344 C 8.601562 8.257812 8.007812 8.851562 7.277344 8.851562 L 4.628906 8.851562 C 3.898438 8.851562 3.308594 8.257812 3.308594 7.527344 L 3.308594 4.878906 C 3.308594 4.148438 3.898438 3.558594 4.628906 3.558594 Z M 4.628906 3.558594 "/>
<path style=" stroke:none;fill-rule:nonzero;fill:rgb(14.901961%,65.098041%,60.392159%);fill-opacity:1;" d="M 23.152344 1.574219 C 22.054688 1.574219 21.167969 2.457031 21.167969 3.558594 L 21.167969 8.851562 C 21.167969 9.949219 22.054688 10.835938 23.152344 10.835938 L 28.445312 10.835938 C 29.542969 10.835938 30.429688 9.949219 30.429688 8.851562 L 30.429688 3.558594 C 30.429688 2.457031 29.542969 1.574219 28.445312 1.574219 Z M 24.476562 3.558594 L 27.121094 3.558594 C 27.855469 3.558594 28.445312 4.148438 28.445312 4.878906 L 28.445312 7.527344 C 28.445312 8.257812 27.855469 8.851562 27.121094 8.851562 L 24.476562 8.851562 C 23.742188 8.851562 23.152344 8.257812 23.152344 7.527344 L 23.152344 4.878906 C 23.152344 4.148438 23.742188 3.558594 24.476562 3.558594 Z M 24.476562 3.558594 "/>
<path style=" stroke:none;fill-rule:nonzero;fill:rgb(14.901961%,65.098041%,60.392159%);fill-opacity:1;" d="M 3.308594 21.417969 C 2.207031 21.417969 1.324219 22.304688 1.324219 23.402344 L 1.324219 28.695312 C 1.324219 29.796875 2.207031 30.679688 3.308594 30.679688 L 8.601562 30.679688 C 9.699219 30.679688 10.585938 29.796875 10.585938 28.695312 L 10.585938 23.402344 C 10.585938 22.304688 9.699219 21.417969 8.601562 21.417969 Z M 4.628906 23.402344 L 7.277344 23.402344 C 8.007812 23.402344 8.601562 23.992188 8.601562 24.726562 L 8.601562 27.371094 C 8.601562 28.105469 8.007812 28.695312 7.277344 28.695312 L 4.628906 28.695312 C 3.898438 28.695312 3.308594 28.105469 3.308594 27.371094 L 3.308594 24.726562 C 3.308594 23.992188 3.898438 23.402344 4.628906 23.402344 Z M 4.628906 23.402344 "/>
</g>
</svg>

<svg xmlns="http://www.w3.org/2000/svg" width="32pt" height="32pt" viewBox="0 0 32 32"><path d="M11.906 12.156l6.563 17.762 4.183-7.016 7.043-4.21zm0 0" fill-rule="evenodd" fill="#bdbdbd"/><path d="M21.715 23.836l1.87-1.871 7.032 7.031-1.87 1.871zm0 0" fill="#bdbdbd"/><path d="M3.309 1.574A1.977 1.977 0 0 0 1.324 3.56v5.293a1.98 1.98 0 0 0 1.985 1.984h5.293a1.982 1.982 0 0 0 1.984-1.984V3.559a1.98 1.98 0 0 0-1.984-1.985zm1.32 1.985h2.648c.73 0 1.325.59 1.325 1.32v2.648c0 .73-.594 1.325-1.325 1.325H4.63c-.73 0-1.32-.594-1.32-1.325V4.88c0-.73.59-1.32 1.32-1.32zm0 0M23.152 1.574a1.98 1.98 0 0 0-1.984 1.985v5.293c0 1.097.887 1.984 1.984 1.984h5.293a1.982 1.982 0 0 0 1.985-1.984V3.559a1.98 1.98 0 0 0-1.985-1.985zm1.325 1.985h2.644c.734 0 1.324.59 1.324 1.32v2.648c0 .73-.59 1.325-1.324 1.325h-2.644a1.323 1.323 0 0 1-1.325-1.325V4.88c0-.73.59-1.32 1.325-1.32zm0 0M3.309 21.418a1.98 1.98 0 0 0-1.985 1.984v5.293c0 1.102.883 1.985 1.985 1.985h5.293a1.98 1.98 0 0 0 1.984-1.985v-5.293a1.982 1.982 0 0 0-1.984-1.984zm1.32 1.984h2.648c.73 0 1.325.59 1.325 1.325v2.644c0 .734-.594 1.324-1.325 1.324H4.63c-.73 0-1.32-.59-1.32-1.324v-2.644c0-.735.59-1.325 1.32-1.325zm0 0" fill="#26a69a"/></svg>
